X: 24
T:Port Padraig Na Carra
T:Lady Ann McGregory
M:6/8
L:1/8
R:Jig
D:Joe Burke, "Galway's Own"
Z:Lorna LaVerne
K:A dorian
e|: cAB ~c3 | ~d3 ede | ~A3 Ace | dcA AGA |
EAB cAc | dcd ede | aba ged | cAA A2e :|
|: eaa aba | gef ~g3 | eaa aba | ged cAA |
eaa aba | gef gfg | aba ged | cAA A2e :|
|: CA,B, ~C3 | ~D3 EDE | ~A,3 A,CE | DCA, A,G,A, |
EA,B, CA,C | DCD EDE | ABA GED | CA,A, A,2E :|
|: EAA ABA | GEF ~G3 | EAA ABA | GED CA,A, |
EAA ABA | GEF GFG | ABA GED | CA,A, A,2E :|
